X: 99
T: No_28_Song_of_a_War_Charm.krn
%%abc-version 2.0
%%abcx-abcm2ps-target-version 5.9.1 (29 Sep 2008)
%%abc-creator hum2abc beta
%%abcx-conversion-date 2020/08/10 18:54:56
%%gracespace 0 6 6
%%humdrum-veritas 2695771596
%%humdrum-veritas-data 3743438075
%%linebreak <none>
%%barnumbers 0
L: 1/8
M: 3/4
%%staves {1 2}
V: 1 clef=bass
V: 2 clef=bass
K: Db
[V:1] E/E/ (3EEE [I:setbarnb 1]| 
[V:2] z3 | 
[V:1] E>E DD/D/ (3_CDD | 
[V:2] G,,G,, G,,G,, G,,G,, | 
[V:1] D(3:2:2D/D B,D/D/ (3DDD | 
[V:2] z6 | 
[V:1] D>D DB,/B,/ (3A,A,A, | 
[V:2] z6 | 
[V:1] A,>A, A,E,/E,/ E,/E,/E,/E,/ | 
[V:2] z6 | 
[V:1] E,>E, E,D,/D,/ (3B,,D,D, | 
[V:2] z6 | 
[V:1] D,(3:2:2D,/D, B,,D,/D,/ (3D,D,D, | 
[V:2] z6 | 
[V:1] D,>D, D,B,,/B,,/ (3A,,A,,A,, | 
[V:2] z6 | 
[V:1] [M:2/4]A,,2A,,2 |]  
[V:2] [M:2/4]z4 |]  


